X: 525
T:Vulpiuta
O:Romania
Z:Deborah Jones, VIFD
F: http://www.youtube.com/watch?v=YIFKZzVRlXY
F: http://www.youtube.com/watch?v=R_-yVrNpFPw
F: http://www.youtube.com/watch?v=Sx_vZ4yUR6c
L:1/8
M:2/4
Q:1/4=180
K:D
|: "Em" c/d/.e z a| ea e2    | ed ed    | gf e2     :|\
|: "Em" c/d/.e z a| ea e2    | ed ed    | gf e2     :|
|: "D" df aa      | "G" ag gf| "A" fe ag|"D" fe d2  :|\
|: "D" df aa      | "G" ag gf| "A" fe ag|"D" fe d2  :|



